**harm	**harte	**timestamp	**phrase	**leadinstrument	**kern
*M4/4	*M4/4	*	*	*	*
*d:	*d:	*	*	*	*d:
1r;	N	0	.	r	1r;
=1	=1	=1	=1	=1	=1
*>A_intro	*>A_intro	*>A_intro	*>A_intro	*>A_intro	*>A_intro
2i	D:5	2.91	newline	guitar	2D 2f 2a
.	B-:maj/5	3.349	.	guitar	.
2iv	G:5	3.788	.	guitar	2G 2b- 2dd
.	B-:maj/5	4.226	.	guitar	.
=2	=2	=2	=2	=2	=2
2-III	F:5	4.665	.	guitar	2F- 2a- 2cc-
.	A-:maj/5	5.104	.	guitar	.
2-vii	C:5	5.542	.	guitar	2C 2e- 2g
.	A-:maj/5	5.981	.	guitar	.
=3	=3	=3	=3	=3	=3
2i	D:5	6.42	.	guitar	2D 2f 2a
.	B-:maj/5	6.858	.	guitar	.
2iv	G:5	7.297	.	guitar	2G 2b- 2dd
.	B-:maj/5	7.735	.	guitar	.
=4	=4	=4	=4	=4	=4
2-III	F:5	8.174	.	guitar	2F- 2a- 2cc-
.	A-:maj/5	8.613	.	guitar	.
4-vii	C:5	9.051	.	guitar	4C 4e- 4g
4-Vc	A-:maj/5	9.49	.	guitar	4a- 4cc 4E-
=5	=5	=5	=5	=5	=5
1-Vc	A-:maj/5	9.929	.	guitar	1a- 1cc 1E-
=6	=6	=6	=6	=6	=6
*M2/4	*M2/4	*M2/4	*M2/4	*M2/4	*M2/4
2-Vc	A-:maj/5	11.683	.	guitar	2a- 2cc 2E-
=7	=7	=7	=7	=7	=7
*>B_verse	*>B_verse	*>B_verse	*>B_verse	*>B_verse	*>B_verse
*M4/4	*M4/4	*M4/4	*M4/4	*M4/4	*M4/4
*C:	*C:	*	*	*	*C:
1I	C:5	12.56	newline	guitar	1C 1e 1g
=8	=8	=8	=8	=8	=8
1I	C:5	14.319	.	guitar	1C 1e 1g
=9	=9	=9	=9	=9	=9
1I	C:5	16.077	newline	voice	1C 1e 1g
=10	=10	=10	=10	=10	=10
1I	C:5	17.786	.	voice	1C 1e 1g
=11	=11	=11	=11	=11	=11
2I	C:1	19.495	newline	guitar	2C 2e 2g
2IV	F:1	20.364	.	guitar	2F 2a 2cc
=12	=12	=12	=12	=12	=12
2V	G:1	21.232	.	guitar	2G 2b 2dd
2I	C:1	22.101	.	guitar	2C 2e 2g
=13	=13	=13	=13	=13	=13
1I	C:5	22.969	newline	guitar	1C 1e 1g
=14	=14	=14	=14	=14	=14
1I	C:5	24.766	.	guitar	1C 1e 1g
=15	=15	=15	=15	=15	=15
1I	C:5	26.564	newline	voice	1C 1e 1g
=16	=16	=16	=16	=16	=16
1I	C:5	28.301	.	voice	1C 1e 1g
=17	=17	=17	=17	=17	=17
2I	C:1	30.039	newline	guitar	2C 2e 2g
2IV	F:1	30.918	.	guitar	2F 2a 2cc
=18	=18	=18	=18	=18	=18
2V	G:1	31.797	.	guitar	2G 2b 2dd
2I	C:1	32.676	.	guitar	2C 2e 2g
=19	=19	=19	=19	=19	=19
*>C_chorus	*>C_chorus	*>C_chorus	*>C_chorus	*>C_chorus	*>C_chorus
1IV	F:5	33.555	newline	voice	1F 1a 1cc
=20	=20	=20	=20	=20	=20
1IV	F:5	35.326	.	voice	1F 1a 1cc
=21	=21	=21	=21	=21	=21
1I	C:5	37.098	newline	guitar	1C 1e 1g
=22	=22	=22	=22	=22	=22
1r	N	38.864	.	guitar	1r
=23	=23	=23	=23	=23	=23
1IV	F:5	40.631	newline	voice	1F 1a 1cc
=24	=24	=24	=24	=24	=24
1IV	F:5	42.372	.	voice	1F 1a 1cc
=25	=25	=25	=25	=25	=25
1I	C:5	44.113	.	voice	1C 1e 1g
=26	=26	=26	=26	=26	=26
*M2/4	*M2/4	*M2/4	*M2/4	*M2/4	*M2/4
2r	N	45.855	.	voice	2r
=27	=27	=27	=27	=27	=27
*>B_verse	*>B_verse	*>B_verse	*>B_verse	*>B_verse	*>B_verse
*M4/4	*M4/4	*M4/4	*M4/4	*M4/4	*M4/4
1I	C:5	46.725	newline	guitar	1C 1e 1g
=28	=28	=28	=28	=28	=28
1I	C:5	48.554	.	guitar	1C 1e 1g
=29	=29	=29	=29	=29	=29
1I	C:5	50.383	newline	voice	1C 1e 1g
=30	=30	=30	=30	=30	=30
1I	C:5	52.107	.	voice	1C 1e 1g
=31	=31	=31	=31	=31	=31
2I	C:1	53.831	newline	guitar	2C 2e 2g
2IV	F:1	54.71	.	guitar	2F 2a 2cc
=32	=32	=32	=32	=32	=32
2V	G:1	55.59	.	guitar	2G 2b 2dd
2I	C:1	56.469	.	guitar	2C 2e 2g
=33	=33	=33	=33	=33	=33
1I	C:5	57.348	newline	guitar	1C 1e 1g
=34	=34	=34	=34	=34	=34
1I	C:5	59.107	.	guitar	1C 1e 1g
=35	=35	=35	=35	=35	=35
1I	C:5	60.865	newline	voice	1C 1e 1g
=36	=36	=36	=36	=36	=36
1r	N	62.626	.	voice	1r
=37	=37	=37	=37	=37	=37
2I	C:1	64.387	newline	guitar	2C 2e 2g
2IV	F:1	65.263	.	guitar	2F 2a 2cc
=38	=38	=38	=38	=38	=38
2V	G:1	66.138	.	guitar	2G 2b 2dd
2I	C:1	67.014	.	guitar	2C 2e 2g
=39	=39	=39	=39	=39	=39
*>C_chorus	*>C_chorus	*>C_chorus	*>C_chorus	*>C_chorus	*>C_chorus
1IV	F:maj	67.889	newline	voice	1F 1a 1cc
=40	=40	=40	=40	=40	=40
1IV	F:maj	69.686	.	voice	1F 1a 1cc
=41	=41	=41	=41	=41	=41
1I	C:maj	71.483	newline	bass	1C 1e 1g
=42	=42	=42	=42	=42	=42
1I	C:maj	73.177	.	bass	1C 1e 1g
=43	=43	=43	=43	=43	=43
1IV	F:5	74.87	newline	voice	1F 1a 1cc
=44	=44	=44	=44	=44	=44
1IV	F:5	76.619	.	voice	1F 1a 1cc
=45	=45	=45	=45	=45	=45
1I	C:5	78.367	.	voice	1C 1e 1g
=46	=46	=46	=46	=46	=46
*M2/4	*M2/4	*M2/4	*M2/4	*M2/4	*M2/4
2r	N	80.116	.	voice	2r
=47	=47	=47	=47	=47	=47
*>B_verse	*>B_verse	*>B_verse	*>B_verse	*>B_verse	*>B_verse
*M4/4	*M4/4	*M4/4	*M4/4	*M4/4	*M4/4
1I	C:5	80.99	newline	guitar	1C 1e 1g
=48	=48	=48	=48	=48	=48
1I	C:5	82.772	.	guitar	1C 1e 1g
=49	=49	=49	=49	=49	=49
1I	C:5	84.553	newline	voice	1C 1e 1g
=50	=50	=50	=50	=50	=50
1I	C:5	86.28	.	voice	1C 1e 1g
=51	=51	=51	=51	=51	=51
2I	C:1	88.007	newline	guitar	2C 2e 2g
2IV	F:1	88.887	.	guitar	2F 2a 2cc
=52	=52	=52	=52	=52	=52
2V	G:1	89.767	.	guitar	2G 2b 2dd
2I	C:1	90.647	.	guitar	2C 2e 2g
=53	=53	=53	=53	=53	=53
1I	C:5	91.527	newline	guitar	1C 1e 1g
=54	=54	=54	=54	=54	=54
1I	C:5	93.287	.	guitar	1C 1e 1g
=55	=55	=55	=55	=55	=55
1I	C:5	95.047	newline	voice	1C 1e 1g
=56	=56	=56	=56	=56	=56
1I	C:5	96.781	.	voice	1C 1e 1g
=57	=57	=57	=57	=57	=57
2I	C:1	98.516	newline	guitar	2C 2e 2g
2IV	F:1	99.365	.	guitar	2F 2a 2cc
=58	=58	=58	=58	=58	=58
2V	G:1	100.213	.	guitar	2G 2b 2dd
2I	C:1	101.062	.	guitar	2C 2e 2g
=59	=59	=59	=59	=59	=59
*>C_chorus	*>C_chorus	*>C_chorus	*>C_chorus	*>C_chorus	*>C_chorus
1IV	F:5	101.911	newline	voice	1F 1a 1cc
=60	=60	=60	=60	=60	=60
1IV	F:5	103.69	.	voice	1F 1a 1cc
=61	=61	=61	=61	=61	=61
1I	C:5	105.468	newline	drums	1C 1e 1g
=62	=62	=62	=62	=62	=62
1r	N	107.152	.	drums	1r
=63	=63	=63	=63	=63	=63
1IV	F:5	108.835	newline	voice	1F 1a 1cc
=64	=64	=64	=64	=64	=64
1IV	F:5	110.571	.	voice	1F 1a 1cc
=65	=65	=65	=65	=65	=65
1I	C:5	112.306	.	voice	1C 1e 1g
=66	=66	=66	=66	=66	=66
*M2/4	*M2/4	*M2/4	*M2/4	*M2/4	*M2/4
2r	N	114.042	.	voice	2r
=67	=67	=67	=67	=67	=67
*>D_solo	*>D_solo	*>D_solo	*>D_solo	*>D_solo	*>D_solo
*M4/4	*M4/4	*M4/4	*M4/4	*M4/4	*M4/4
*B-:	*B-:	*	*	*	*B-:
1I	B-:1	114.91	newline	guitar	1B- 1dd 1ff
=68	=68	=68	=68	=68	=68
1I	B-:1	116.68	.	guitar	1B- 1dd 1ff
=69	=69	=69	=69	=69	=69
1I	B-:1	118.451	.	guitar	1B- 1dd 1ff
=70	=70	=70	=70	=70	=70
1I	B-:1	120.221	.	guitar	1B- 1dd 1ff
=71	=71	=71	=71	=71	=71
1IV	E-:1	121.992	newline	guitar	1E- 1g 1b-
=72	=72	=72	=72	=72	=72
1IV	E-:1	123.67	.	guitar	1E- 1g 1b-
=73	=73	=73	=73	=73	=73
1IV	E-:1	125.349	.	guitar	1E- 1g 1b-
=74	=74	=74	=74	=74	=74
1IV	E-:1	127.027	.	guitar	1E- 1g 1b-
=75	=75	=75	=75	=75	=75
1V	F:1	128.705	newline	guitar	1F 1a 1cc
=76	=76	=76	=76	=76	=76
1V	F:1	130.36	.	guitar	1F 1a 1cc
=77	=77	=77	=77	=77	=77
1V	F:1	132.015	.	guitar	1F 1a 1cc
=78	=78	=78	=78	=78	=78
1V	F:1	133.671	.	guitar	1F 1a 1cc
=79	=79	=79	=79	=79	=79
*>A_interlude	*>A_interlude	*>A_interlude	*>A_interlude	*>A_interlude	*>A_interlude
*d:	*d:	*	*	*	*d:
2i	D:5	135.326	newline	guitar	2D 2f 2a
.	B-:maj/5	135.865	.	guitar	.
2iv	G:5	136.405	.	guitar	2G 2b- 2dd
.	B-:maj/5	136.944	.	guitar	.
=80	=80	=80	=80	=80	=80
2-III	F:5	137.484	.	guitar	2F- 2a- 2cc-
.	A-:maj/5	138.023	.	guitar	.
2-vii	C:5	138.562	.	guitar	2C 2e- 2g
.	A-:maj/5	139.102	.	guitar	.
=81	=81	=81	=81	=81	=81
2i	D:5	139.641	.	guitar	2D 2f 2a
.	B-:maj/5	140.181	.	guitar	.
2iv	G:5	140.72	.	guitar	2G 2b- 2dd
.	B-:maj/5	141.26	.	guitar	.
=82	=82	=82	=82	=82	=82
*M3/4	*M3/4	*M3/4	*M3/4	*M3/4	*M3/4
2-III	F:5	141.799	.	guitar	2F- 2a- 2cc-
.	A-:maj/5	142.338	.	guitar	.
4-vii	C:5	142.878	.	guitar	4C 4e- 4g
=83	=83	=83	=83	=83	=83
*>D_solo	*>D_solo	*>D_solo	*>D_solo	*>D_solo	*>D_solo
*M4/4	*M4/4	*M4/4	*M4/4	*M4/4	*M4/4
*E-:	*E-:	*	*	*	*E-:
1I	E-:5	143.417	newline	guitar	1E- 1g 1b-
=84	=84	=84	=84	=84	=84
1I	E-:5	145.186	.	guitar	1E- 1g 1b-
=85	=85	=85	=85	=85	=85
1#I	E:5	146.954	.	guitar	1E 1g# 1b
=86	=86	=86	=86	=86	=86
1#I	E:5	148.723	.	guitar	1E 1g# 1b
=87	=87	=87	=87	=87	=87
1II	F:5	150.491	newline	guitar	1F 1a 1cc
=88	=88	=88	=88	=88	=88
1II	F:5	152.2	.	guitar	1F 1a 1cc
=89	=89	=89	=89	=89	=89
1#II	F#:5	153.909	.	guitar	1F# 1a# 1cc#
=90	=90	=90	=90	=90	=90
1#II	F#:5	155.619	.	guitar	1F# 1a# 1cc#
=91	=91	=91	=91	=91	=91
1III	G:5	157.328	newline	guitar	1G 1b 1dd
=92	=92	=92	=92	=92	=92
1III	G:5	159.022	.	guitar	1G 1b 1dd
=93	=93	=93	=93	=93	=93
1IV	A-:5	160.717	.	guitar	1A- 1cc 1ee-
=94	=94	=94	=94	=94	=94
1IV	A-:5	162.412	.	guitar	1A- 1cc 1ee-
=95	=95	=95	=95	=95	=95
1#IV	A:5	164.106	newline	guitar	1A 1cc# 1ee
=96	=96	=96	=96	=96	=96
1#IV	A:5	165.805	.	guitar	1A 1cc# 1ee
=97	=97	=97	=97	=97	=97
1V	B-:5	167.503	.	guitar	1B- 1dd 1ff
=98	=98	=98	=98	=98	=98
1V	B-:5	169.202	.	guitar	1B- 1dd 1ff
=99	=99	=99	=99	=99	=99
1#V	B:5	170.9	newline	guitar	1B 1dd# 1ff#
=100	=100	=100	=100	=100	=100
1#V	B:5	172.549	.	guitar	1B 1dd# 1ff#
=101	=101	=101	=101	=101	=101
1#V	B:5	174.197	.	guitar	1B 1dd# 1ff#
=102	=102	=102	=102	=102	=102
1#V	B:5	175.846	.	guitar	1B 1dd# 1ff#
=103	=103	=103	=103	=103	=103
*>B_verse	*>B_verse	*>B_verse	*>B_verse	*>B_verse	*>B_verse
*C:	*C:	*	*	*	*C:
1I	C:5	177.495	newline	guitar	1C 1e 1g
=104	=104	=104	=104	=104	=104
1I	C:5	179.232	.	guitar	1C 1e 1g
=105	=105	=105	=105	=105	=105
1I	C:5	180.969	newline	voice	1C 1e 1g
=106	=106	=106	=106	=106	=106
1I	C:5	182.678	.	voice	1C 1e 1g
=107	=107	=107	=107	=107	=107
2I	C:1	184.388	newline	guitar	2C 2e 2g
2IV	F:1	185.267	.	guitar	2F 2a 2cc
=108	=108	=108	=108	=108	=108
2V	G:1	186.145	.	guitar	2G 2b 2dd
2I	C:1	187.024	.	guitar	2C 2e 2g
=109	=109	=109	=109	=109	=109
1I	C:5	187.903	newline	guitar	1C 1e 1g
=110	=110	=110	=110	=110	=110
1I	C:5	189.639	.	guitar	1C 1e 1g
=111	=111	=111	=111	=111	=111
1I	C:5	191.376	newline	voice	1C 1e 1g
=112	=112	=112	=112	=112	=112
1I	C:5	193.101	.	voice	1C 1e 1g
=113	=113	=113	=113	=113	=113
2I	C:1	194.827	newline	guitar	2C 2e 2g
2IV	F:1	195.71	.	guitar	2F 2a 2cc
=114	=114	=114	=114	=114	=114
2V	G:1	196.593	.	guitar	2G 2b 2dd
2I	C:1	197.477	.	guitar	2C 2e 2g
=115	=115	=115	=115	=115	=115
*>C_chorus	*>C_chorus	*>C_chorus	*>C_chorus	*>C_chorus	*>C_chorus
1IV	F:5	198.36	newline	voice	1F 1a 1cc
=116	=116	=116	=116	=116	=116
1IV	F:5	200.105	.	voice	1F 1a 1cc
=117	=117	=117	=117	=117	=117
1I	C:5	201.85	newline	guitar	1C 1e 1g
=118	=118	=118	=118	=118	=118
1r	N	203.343	.	guitar	1r
=119	=119	=119	=119	=119	=119
1IV	F:5	204.837	newline	voice	1F 1a 1cc
=120	=120	=120	=120	=120	=120
1IV	F:5	206.615	.	voice	1F 1a 1cc
=121	=121	=121	=121	=121	=121
1I	C:5	208.392	.	voice	1C 1e 1g
=122	=122	=122	=122	=122	=122
*M2/4	*M2/4	*M2/4	*M2/4	*M2/4	*M2/4
2r	N	210.17	.	voice	2r
=123	=123	=123	=123	=123	=123
*>A_outro	*>A_outro	*>A_outro	*>A_outro	*>A_outro	*>A_outro
*M4/4	*M4/4	*M4/4	*M4/4	*M4/4	*M4/4
*d:	*d:	*	*	*	*d:
2i	D:5	211.059	newline	guitar	2D 2f 2a
.	B-:maj/5	211.501	.	guitar	.
2iv	G:5	211.943	.	guitar	2G 2b- 2dd
.	B-:maj/5	212.385	.	guitar	.
=124	=124	=124	=124	=124	=124
2-III	F:5	212.828	.	guitar	2F- 2a- 2cc-
.	A-:maj/5	213.27	.	guitar	.
2-vii	C:5	213.712	.	guitar	2C 2e- 2g
.	A-:maj/5	214.155	.	guitar	.
=125	=125	=125	=125	=125	=125
2i	D:5	214.597	.	guitar	2D 2f 2a
.	B-:maj/5	215.039	.	guitar	.
2iv	G:5	215.482	.	guitar	2G 2b- 2dd
.	B-:maj/5	215.924	.	guitar	.
=126	=126	=126	=126	=126	=126
2-III	F:5	216.366	.	guitar	2F- 2a- 2cc-
.	A-:maj/5	216.809	.	guitar	.
4-vii	C:5	217.251	.	guitar	4C 4e- 4g
4-Vc	A-:maj/5	217.693	.	guitar	4a- 4cc 4E-
=127	=127	=127	=127	=127	=127
1-Vc	A-:maj/5	218.136	.	guitar	1a- 1cc 1E-
1r;	N	224.328	.	r	1r;
1r;	N	226.194	.	r	1r;
*-	*-	*-	*-	*-	*-
!!!OTL: Summertime Blues
!!!COC: Blue Cheer
!!!BillboardChartDate: 1968/05/25
!!!BillboardPeak: 14
!!!BillboardWeeksOnChart: 13
!!!SampleTargetRank: 32
!!!SampleActualRank: 33
!!!SampleID#: 1170
!!!RDF**harmony: **recip + pitch class of root + harmonic quality
!!!RDF**harte: Chris Harte's syntax, used by MIREX
!!!RDF**phrase: newline = linebreak in original McGill transcription
!!!RDF**timestamp: McGill audio timestamp in seconds
!!!RDF**leadinstrument: original McGill primary instrumentation annotation
!!!RDT: 2017/01/12/
!!!ENC: Nathaniel Condit-Schultz
!!!EST: Awating manual error checking and editing.
